data/pan-bikes.svg

<?xml version="1.0" encoding="UTF-8" standalone="no"?>
<svg
   xmlns:dc="http://purl.org/dc/elements/1.1/"
   xmlns:cc="http://creativecommons.org/ns#"
   xmlns:rdf="http://www.w3.org/1999/02/22-rdf-syntax-ns#"
   xmlns:svg="http://www.w3.org/2000/svg"
   xmlns="http://www.w3.org/2000/svg"
   xmlns:xlink="http://www.w3.org/1999/xlink"
   xmlns:sodipodi="http://sodipodi.sourceforge.net/DTD/sodipodi-0.dtd"
   xmlns:inkscape="http://www.inkscape.org/namespaces/inkscape"
   version="1.1"
   x="0px"
   y="0px"
   width="86px"
   height="86px"
   viewBox="0 0 86 86"
   enable-background="new 0 0 86 86"
   xml:space="preserve"
   id="svg2"
   inkscape:version="0.92+devel unknown"
   sodipodi:docname="pan-bikes.svg"><metadata
     id="metadata49"><rdf:RDF><cc:Work
         rdf:about=""><dc:format>image/svg+xml</dc:format><dc:type
           rdf:resource="http://purl.org/dc/dcmitype/StillImage" /><dc:title /></cc:Work></rdf:RDF></metadata><defs
     id="defs47"><radialGradient
       r="42.6105"
       cy="43.466"
       cx="40.4091"
       gradientTransform="matrix(1.0021,0,0,1.0021,2.506,-0.5573)"
       gradientUnits="userSpaceOnUse"
       id="radialGradient11002"
       xlink:href="#SVGID_1_"
       inkscape:collect="always" /><radialGradient
       gradientUnits="userSpaceOnUse"
       gradientTransform="matrix(1.0021,0,0,1.0021,2.506,-0.5573)"
       r="42.6105"
       cy="43.466"
       cx="40.4091"
       id="SVGID_1_"><stop
         id="stop9"
         style="stop-color:#3f8fd6;stop-opacity:1;"
         offset="0" /><stop
         id="stop11"
         style="stop-color:#0e85d2"
         offset="1" /></radialGradient><radialGradient
       r="42.6105"
       cy="43.466"
       cx="40.4091"
       gradientTransform="matrix(1.0021,0,0,1.0021,2.506,-0.5573)"
       gradientUnits="userSpaceOnUse"
       id="radialGradient11008"
       xlink:href="#SVGID_1_"
       inkscape:collect="always" /></defs><sodipodi:namedview
     pagecolor="#ffffff"
     bordercolor="#666666"
     borderopacity="1"
     objecttolerance="10"
     gridtolerance="10"
     guidetolerance="10"
     inkscape:pageopacity="0"
     inkscape:pageshadow="2"
     inkscape:window-width="1920"
     inkscape:window-height="1136"
     id="namedview45"
     showgrid="true"
     inkscape:zoom="10.418605"
     inkscape:cx="42.999999"
     inkscape:cy="42.999999"
     inkscape:window-x="0"
     inkscape:window-y="27"
     inkscape:window-maximized="1"
     inkscape:current-layer="svg2"
     inkscape:showpageshadow="false"><inkscape:grid
       type="xygrid"
       id="grid10146"
       empspacing="10"
       visible="true"
       enabled="true"
       snapvisiblegridlinesonly="true" /></sodipodi:namedview><g
     id="Layer_2"
     display="none" /><g
     id="g894"><g
       display="none"
       id="Layer_2-1"
       style="display:none" /><circle
       style="fill:url(#radialGradient11008)"
       id="circle13-2"
       r="42.700001"
       cy="43"
       cx="43" /></g><path
     style="fill:#000000;fill-opacity:0.17647059;fill-rule:evenodd;stroke:none;stroke-width:1px;stroke-linecap:butt;stroke-linejoin:miter;stroke-opacity:1"
     d="M 70.619141 32.021484 C 73.328135 34.887649 75 38.744921 75 43 C 75 51.836556 67.836556 59 59 59 C 50.163444 59 43 51.836556 43 43 C 43 51.836556 35.836556 59 27 59 C 22.783735 59 18.959627 57.356694 16.101562 54.691406 L 46.603516 85.523438 A 42.700001 42.700001 0 0 0 85.509766 46.785156 L 70.619141 32.021484 z "
     id="path26" /><g
     id="g17-3-3"
     transform="matrix(0.74418605,0,0,0.74418605,11,11)"
     style="fill:#fafaff;fill-opacity:1"><path
       id="path831-6-6"
       d="M 21.5,21.5 C 9.6258779,21.5 0,31.125878 0,43 0,54.874122 9.6258779,64.5 21.5,64.5 33.374122,64.5 43,54.874122 43,43 43,31.125878 33.374122,21.5 21.5,21.5 Z m 0,12.5 a 9,9 0 0 1 9,9 9,9 0 0 1 -9,9 9,9 0 0 1 -9,-9 9,9 0 0 1 9,-9 z"
       style="fill:#fafaff;fill-opacity:1;stroke-width:5.375;stroke-linecap:round"
       inkscape:connector-curvature="0" /><path
       id="path831-3-7-7"
       d="M 64.5,21.5 C 52.625878,21.5 43,31.125878 43,43 43,54.874122 52.625878,64.5 64.5,64.5 76.374122,64.5 86,54.874122 86,43 86,31.125878 76.374122,21.5 64.5,21.5 Z m 0,12.5 a 9,9 0 0 1 9,9 9,9 0 0 1 -9,9 9,9 0 0 1 -9,-9 9,9 0 0 1 9,-9 z"
       style="fill:#fafaff;fill-opacity:1;stroke-width:5.375;stroke-linecap:round"
       inkscape:connector-curvature="0" /></g></svg>

<?xml version="1.0" encoding="UTF-8" standalone="no"?>
<!-- Generator: Adobe Illustrator 17.0.1, SVG Export Plug-In . SVG Version: 6.00 Build 0)  -->

<svg
   xmlns:dc="http://purl.org/dc/elements/1.1/"
   xmlns:cc="http://creativecommons.org/ns#"
   xmlns:rdf="http://www.w3.org/1999/02/22-rdf-syntax-ns#"
   xmlns:svg="http://www.w3.org/2000/svg"
   xmlns="http://www.w3.org/2000/svg"
   xmlns:xlink="http://www.w3.org/1999/xlink"
   xmlns:sodipodi="http://sodipodi.sourceforge.net/DTD/sodipodi-0.dtd"
   xmlns:inkscape="http://www.inkscape.org/namespaces/inkscape"
   version="1.1"
   x="0px"
   y="0px"
   width="86px"
   height="86px"
   viewBox="0 0 86 86"
   enable-background="new 0 0 86 86"
   xml:space="preserve"
   id="svg2"
   inkscape:version="0.92+devel unknown"
   sodipodi:docname="pan-bikes.svg"><metadata
     id="metadata49"><rdf:RDF><cc:Work
         rdf:about=""><dc:format>image/svg+xml</dc:format><dc:type
           rdf:resource="http://purl.org/dc/dcmitype/StillImage" /><dc:title /></cc:Work></rdf:RDF></metadata><defs
     id="defs47"><radialGradient
       gradientUnits="userSpaceOnUse"
       gradientTransform="matrix(1.0021,0,0,1.0021,2.506,-0.5573)"
       r="42.6105"
       cy="43.466"
       cx="40.4091"
       id="radialGradient829"><stop
         id="stop825"
         style="stop-color:#57cde3;stop-opacity:1"
         offset="0" /><stop
         id="stop827"
         style="stop-color:#0072bb;stop-opacity:1"
         offset="1" /></radialGradient><radialGradient
       inkscape:collect="always"
       xlink:href="#radialGradient829"
       id="radialGradient11008"
       gradientUnits="userSpaceOnUse"
       gradientTransform="matrix(-1.009141,1.009141,-1.0091408,-1.009141,123.54999,66.82354)"
       cx="6.8010612"
       cy="73.019302"
       r="42.6105"
       fx="6.8010612"
       fy="73.019302" /></defs><sodipodi:namedview
     pagecolor="#ffffff"
     bordercolor="#666666"
     borderopacity="1"
     objecttolerance="10"
     gridtolerance="10"
     guidetolerance="10"
     inkscape:pageopacity="0"
     inkscape:pageshadow="2"
     inkscape:window-width="1920"
     inkscape:window-height="1136"
     id="namedview45"
     showgrid="true"
     inkscape:zoom="10.813953"
     inkscape:cx="43.000002"
     inkscape:cy="43.000002"
     inkscape:window-x="0"
     inkscape:window-y="27"
     inkscape:window-maximized="1"
     inkscape:current-layer="svg2"
     inkscape:showpageshadow="false"><inkscape:grid
       type="xygrid"
       id="grid10146"
       empspacing="10"
       visible="true"
       enabled="true"
       snapvisiblegridlinesonly="true" /></sodipodi:namedview><g
     id="Layer_2"
     display="none" /><circle
     cx="43"
     cy="43"
     r="42.700001"
     id="circle13"
     style="fill:url(#radialGradient11008)"
     sodipodi:cx="43"
     sodipodi:cy="43"
     sodipodi:rx="42.700001"
     sodipodi:ry="42.700001" /><path
     style="fill:#fafaff;fill-opacity:1;stroke-width:5.375;stroke-linecap:round"
     d="M 21.5 21.5 C 9.6258779 21.5 0 31.125878 0 43 C 0 54.874122 9.6258779 64.5 21.5 64.5 C 33.374122 64.5 43 54.874122 43 43 C 43 31.125878 33.374122 21.5 21.5 21.5 z M 21.5 34 A 9 9 0 0 1 30.5 43 A 9 9 0 0 1 21.5 52 A 9 9 0 0 1 12.5 43 A 9 9 0 0 1 21.5 34 z "
     id="path831" /><path
     style="fill:#fafaff;fill-opacity:1;stroke-width:5.375;stroke-linecap:round"
     d="M 64.5 21.5 C 52.625878 21.5 43 31.125878 43 43 C 43 54.874122 52.625878 64.5 64.5 64.5 C 76.374122 64.5 86 54.874122 86 43 C 86 31.125878 76.374122 21.5 64.5 21.5 z M 64.5 34 A 9 9 0 0 1 73.5 43 A 9 9 0 0 1 64.5 52 A 9 9 0 0 1 55.5 43 A 9 9 0 0 1 64.5 34 z "
     id="path831-3" /></svg>
